assets/Bucket/Flat/bucket_flat.svg

<svg width="32" height="32" viewBox="0 0 32 32" fill="none" xmlns="http://www.w3.org/2000/svg">
<path d="M4.47009 10L4.86945 13.1047L4.5 15.5L5.3469 16.8165L6.77 27.88C6.85 28.52 7.38 29 8 29H24.14C24.76 29 25.29 28.52 25.37 27.88L27.5483 10L16 8L4.47009 10Z" fill="#0074BA"/>
<path d="M4.8715 13.1206L5.34651 16.8135C5.03778 17.5423 4.77554 18.2428 4.58236 18.8988C4.16976 20.2998 4.14163 21.2752 4.40221 21.8652C4.60257 22.3188 5.10141 22.8051 6.60922 22.871C8.08469 22.9349 9.26815 22.6923 10.275 22.2216C11.2865 21.7488 12.1735 21.0204 13.0188 20.0379C14.4969 18.3196 15.7496 15.9556 17.287 13.0544L17.2876 13.0532C17.5505 12.5571 17.8218 12.0451 18.104 11.5181C18.3646 11.0311 18.9706 10.8477 19.4575 11.1084C19.9444 11.369 20.1279 11.975 19.8672 12.4619C19.5968 12.9671 19.3328 13.466 19.0731 13.9569C17.5483 16.8385 16.1724 19.4387 14.5349 21.3422C13.5564 22.4796 12.4528 23.4112 11.1221 24.0334C9.78685 24.6576 8.27634 24.9451 6.52196 24.8691C4.59477 24.7849 3.19736 24.0874 2.57272 22.6733C2.0083 21.3954 2.22642 19.819 2.66383 18.3338C3.11458 16.8032 3.87411 15.1285 4.67413 13.5158C4.73953 13.3839 4.80537 13.2522 4.8715 13.1206Z" fill="#D3D3D3"/>
<path d="M3.35562 9.06L3.00562 6.71C2.95562 6.34 3.24562 6 3.62562 6H28.3756C28.7556 6 29.0456 6.34 28.9956 6.71L28.6356 9.06C28.5556 9.6 28.0956 10 27.5556 10H4.44562C3.89562 10 3.43562 9.6 3.35562 9.06Z" fill="#00A6ED"/>
</svg>

<svg xmlns="http://www.w3.org/2000/svg" width="32" height="32" fill="none"><path fill="#0074BA" d="m4.47 10 .4 3.105L4.5 15.5l.847 1.317L6.77 27.88C6.85 28.52 7.38 29 8 29h16.14c.62 0 1.15-.48 1.23-1.12L27.548 10 16 8 4.47 10Z"/><path fill="#D3D3D3" d="m4.872 13.12.475 3.694c-.31.728-.571 1.429-.765 2.085-.412 1.4-.44 2.376-.18 2.966.2.454.7.94 2.207 1.006 1.476.064 2.66-.179 3.666-.65 1.011-.472 1.899-1.2 2.744-2.183 1.478-1.718 2.73-4.082 4.268-6.984.264-.497.535-1.009.817-1.536a1 1 0 1 1 1.763.944c-.27.505-.534 1.004-.794 1.495-1.525 2.881-2.9 5.482-4.538 7.385-.979 1.138-2.082 2.07-3.413 2.691-1.335.625-2.846.912-4.6.836-1.927-.084-3.325-.782-3.95-2.196-.564-1.278-.346-2.854.092-4.34.45-1.53 1.21-3.204 2.01-4.817l.197-.395Z"/><path fill="#00A6ED" d="m3.356 9.06-.35-2.35c-.05-.37.24-.71.62-.71h24.75c.38 0 .67.34.62.71l-.36 2.35c-.08.54-.54.94-1.08.94H4.446c-.55 0-1.01-.4-1.09-.94Z"/></svg>
